X: 2674
T: Bank Of Turf, The
R: jig
M: 6/8
K: Dmajor
|:ABA DFA|BAF DFA|dAA eAA|fAA def|g3 gab|
afd Bcd|1 efe e2d|cBA Bcd:|2 ABA efe|d3 Bcd||
|:efe efg|f3 fga|gfe fed|ecA ABd|
e3 efg|f3 fga|gfe dcB|A3 ABd:|

